icon/lg/ffmpeg.svg

<?xml version="1.0" encoding="UTF-8"?>
<svg viewBox="0 0 512 138" version="1.1" xmlns="http://www.w3.org/2000/svg" preserveAspectRatio="xMidYMid" height="1em" width="1em">
  <defs>
    <radialGradient cx="19.9315782%" cy="18.8517713%" fx="19.9315782%" fy="18.8517713%" r="50.6480831%" gradientTransform="translate(0.199316,0.188518),scale(0.965227,1.000000),translate(-0.199316,-0.188518)" id="ffmpegRadialGradient-1">
      <stop stop-color="#FFFFFF" offset="0%"/>
      <stop stop-color="#007808" offset="100%"/>
    </radialGradient>
  </defs>
  <g>
    <g>
      <polygon fill="#0B4819" points="1.16569383 28.2047721 1.16569383 11.5839399 12.3230491 15.427764 12.3230491 30.889746"/>
      <polygon fill="#0B4819" points="10.1627515 96.5335929 10.1627515 34.7335701 20.8273673 36.9896781 20.8273673 94.4257629"/>
      <polygon fill="#105C80" points="62.3246991 11.5565655 34.9160662 42.9915186 34.9160662 56.3684826 75.5670723 10.5323061 139.953977 5.54788142 45.2453454 104.264584 57.8535446 104.928413 126.643168 34.5693236 126.643168 101.068621 119.001144 108.252124 138.38223 109.299195 138.38223 127.703927 77.5882166 122.995527 108.578335 92.9315761 108.578335 78.1151741 64.2728449 121.964424 11.2212289 117.862824 96.3168787 26.3478743 82.3125843 27.1052331 20.8273673 94.4257629 20.8273673 36.9896781 26.6512741 30.1141376 12.3230491 30.889746 12.3230491 15.427764"/>
      <polygon fill="#0B4819" points="10.1627515 34.7335701 16.3311197 27.30826 26.6512741 30.1141376 20.8273673 36.9896781"/>
      <polygon fill="#084010" points="25.1023384 41.1505892 34.9160662 42.9915186 34.9160662 56.3684826 25.1023384 55.5654998"/>
      <polygon fill="#0C541E" points="36.0886036 107.230145 45.2453454 104.264584 57.8535446 104.928413 49.5340037 108.005754"/>
      <polygon fill="#1A5C34" points="54.3108391 7.08541105 62.3246991 11.5565655 34.9160662 42.9915186 25.1023384 41.1505892"/>
      <polygon fill="#0B4819" points="25.1023384 55.5654998 68.4862236 5.8854992 75.5670723 10.5323061 34.9160662 56.3684826"/>
      <polygon fill="#1A5C34" points="75.7244752 23.7974913 82.3125843 27.1052331 20.8273673 94.4257629 10.1627515 96.5335929"/>
      <polygon fill="#0B4819" points="0 121.688399 90.7872469 22.9078229 96.3168787 26.3478743 11.2212289 117.862824"/>
      <polygon fill="#1A5C34" points="104.015933 79.1052154 108.578335 78.1151741 64.2728449 121.964424 56.3935759 126.462953"/>
      <polygon fill="#0B4819" points="104.015933 95.2104961 104.015933 79.1052154 108.578335 78.1151741 108.578335 92.9315761"/>
      <polygon fill="#0B4819" points="70.655646 127.667427 104.015933 95.2104961 108.578335 92.9315761 77.5882166 122.995527"/>
      <polygon fill="#13802D" points="123.568109 104.132274 115.287348 111.913452 119.001144 108.252124 126.643168 101.068621"/>
      <polygon fill="#0B4819" points="49.5340037 108.005754 123.568109 31.7086972 126.643168 34.5693236 57.8535446 104.928413"/>
      <polygon fill="#084010" points="123.568109 31.7086972 126.643168 34.5693236 126.643168 101.068621 123.568109 104.132274"/>
      <polygon fill="#084010" points="136.322305 113.156706 138.38223 109.299195 138.38223 127.703927 136.322305 133.228996"/>
      <polygon fill="#1A5C34" points="138.028643 0 139.953977 5.54788142 45.2453454 104.264584 36.0886036 107.230145"/>
      <polygon fill="url(#ffmpegRadialGradient-1)" points="54.3108391 7.08541105 25.1023384 41.1505892 25.1023384 55.5654998 68.4862236 5.8854992 138.028643 0 36.0886036 107.230145 49.5340037 108.005754 123.568109 31.7086972 123.568109 104.132274 115.287348 111.913452 136.322305 113.156706 136.322305 133.228996 70.655646 127.667427 104.015933 95.2104961 104.015933 79.1052154 56.3935759 126.462953 0 121.688399 90.7872469 22.9078229 75.7244752 23.7974913 10.1627515 96.5335929 10.1627515 34.7335701 16.3311197 27.30826 1.16569383 28.2047721 1.16569383 11.5839399"/>
    </g>
    <path d="M177.03223,67.7318374 L200.413733,67.7318374 L200.413733,82.3646714 L177.03223,82.3646714 L177.03223,114.936453 L164.440355,114.936453 L164.440355,114.94242 L164.440355,36.2640831 L208.726758,36.2640831 L208.726758,50.9506265 L177.03223,50.9506265 L177.03223,67.7318374 Z M226.10474,67.7318374 L249.49221,67.7318374 L249.49221,82.3646714 L226.10474,82.3646714 L226.10474,114.936453 L213.518832,114.936453 L213.518832,114.94242 L213.518832,36.2640831 L257.805235,36.2640831 L257.805235,50.9506265 L226.10474,50.9506265 L226.10474,67.7318374 Z M277.188369,81.3740309 L277.188369,114.94242 L262.501826,114.94242 L262.501826,64.0139518 L277.188369,62.4384754 L277.188369,67.1052275 C280.47658,64.0199195 284.671882,62.4921848 289.774278,62.4921848 C296.416343,62.4921848 301.4889,64.5033043 304.98598,68.5255433 C308.835155,64.5033043 314.599967,62.4921848 322.292349,62.4921848 C328.934415,62.4921848 334.006971,64.5033043 337.504052,68.5255433 C341.001132,72.5537501 342.749672,77.1787282 342.749672,82.4243485 L342.749672,114.94242 L328.063129,114.94242 L328.063129,86.0944924 C328.063129,82.5974122 327.27539,79.8880702 325.699914,77.9664664 C324.124438,76.0508303 321.576224,75.036319 318.043337,74.9229324 C315.143028,75.1318024 312.624653,77.0534062 310.488212,80.6937115 C310.315148,81.7858031 310.225632,82.8778947 310.225632,84.0057926 L310.225632,114.954356 L295.539089,114.954356 L295.539089,86.1064279 C295.539089,82.6093476 294.751351,79.9000056 293.175874,77.9784018 C291.600398,76.0627657 289.06412,75.0422867 285.531233,74.9289001 C282.314635,75.1318024 279.533681,77.2801793 277.188369,81.3740309 L277.188369,81.3740309 Z M350.131734,136.969252 L350.131734,64.0139518 L364.818277,62.4384754 L364.818277,66.6337781 C368.733097,63.8289526 372.582273,62.4384754 376.359836,62.4384754 C384.404314,62.4384754 390.783799,65.052334 395.504261,70.2979543 C400.224723,75.5495423 402.587937,81.6604812 402.587937,88.6546416 C402.587937,95.648802 400.224723,101.765709 395.504261,107.011329 C390.783799,112.256949 384.404314,114.876776 376.359836,114.876776 C371.114215,114.518713 367.271008,113.110332 364.818277,110.627763 L364.818277,137.011026 L350.131734,136.969252 Z M364.818277,83.9461155 L364.818277,92.4501075 C365.5165,98.3163701 369.186644,101.771676 375.834677,102.774252 C384.225282,102.111836 388.945744,97.755405 389.996061,89.7168946 C389.643966,79.9179088 384.923505,74.8572875 375.834677,74.4992247 C369.186644,75.5495423 365.5165,78.7004952 364.818277,83.9461155 L364.818277,83.9461155 Z M404.921313,88.7143187 C404.921313,81.0219358 407.368076,74.7200301 412.261601,69.8324726 C417.155126,64.9389474 423.451064,62.4921848 431.143447,62.4921848 C438.83583,62.4921848 444.952737,64.9389474 449.500135,69.8324726 C454.047532,74.7200301 456.321231,81.0219358 456.321231,88.7143187 L456.321231,93.9599391 L420.133015,93.9599391 C420.485111,96.7587968 421.708492,98.94298 423.803159,100.518456 C425.897827,102.093933 428.350557,102.881671 431.143447,102.881671 C436.036972,102.881671 440.411307,101.491194 444.254514,98.692336 L452.64512,107.076974 C448.795944,112.322594 441.62872,114.94242 431.137479,114.94242 C423.445097,114.94242 417.149159,112.495658 412.255633,107.602133 C407.362108,102.708607 404.921313,96.4126694 404.921313,88.7143187 Z M438.489703,76.9161488 C436.389068,75.3406724 433.942305,74.5529341 431.149415,74.5529341 C428.356525,74.5529341 425.903795,75.3406724 423.809127,76.9161488 C421.71446,78.4916252 420.664142,80.6758084 420.664142,83.4746661 L441.646623,83.4746661 C441.634688,80.6758084 440.58437,78.4916252 438.489703,76.9161488 Z M512,64.0676612 L512,110.747118 C512,118.087406 509.815817,124.228183 505.441483,129.157514 C501.067149,134.086846 495.564916,136.694737 488.916883,136.981187 L485.771898,137.297476 C475.632753,137.088606 467.761338,134.188297 462.169591,128.590582 L468.990687,120.725135 C472.839863,123.52996 477.506615,125.093501 482.996911,125.445597 C488.594627,125.445597 492.378157,124.132699 494.347503,121.512873 C496.328784,118.899015 497.313457,116.004673 497.313457,112.865656 L497.313457,110.24583 C493.398636,113.390815 488.851239,114.966291 483.677231,114.966291 C475.632753,114.966291 469.605362,112.603077 465.583123,107.882615 C461.560884,103.162154 459.549764,96.7826677 459.549764,88.7381896 C459.549764,81.0458066 461.733948,74.743901 466.108282,69.8563435 C470.482616,64.9628182 476.68307,62.5160556 484.727548,62.5160556 C490.671391,62.8741185 494.866694,64.4555626 497.313457,67.2902266 L497.313457,62.5160556 L512,64.0676612 Z M497.313457,93.4347803 L497.313457,84.936756 C496.615234,79.0704934 492.94509,75.6151872 486.297057,74.6126113 C477.554357,74.9289001 472.833895,79.2793634 472.135673,87.6699688 C472.487768,97.4689547 477.208229,102.529576 486.297057,102.887639 C492.94509,101.831353 496.615234,98.6804006 497.313457,93.4347803 L497.313457,93.4347803 Z" fill="#000000"/>
  </g>
</svg>

<svg width="512" height="138" xmlns="http://www.w3.org/2000/svg" preserveAspectRatio="xMidYMid"><defs><radialGradient cx="19.932%" cy="18.852%" fx="19.932%" fy="18.852%" r="50.648%" gradientTransform="matrix(.96523 0 0 1 .007 0)" id="a"><stop stop-color="#FFF" offset="0%"/><stop stop-color="#007808" offset="100%"/></radialGradient></defs><path fill="#0B4819" d="M1.166 28.205V11.584l11.157 3.844V30.89zM10.163 96.534v-61.8l10.664 2.256v57.436z"/><path fill="#105C80" d="M62.325 11.557 34.916 42.992v13.376l40.651-45.836 64.387-4.984-94.709 98.717 12.609.663 68.79-70.359v66.5L119 108.252l19.381 1.047v18.405l-60.794-4.708 30.99-30.064V78.115l-44.305 43.85-53.052-4.102 85.096-91.515-14.004.757-61.486 67.32V36.99l5.824-6.876-14.328.776V15.428z"/><path fill="#0B4819" d="m10.163 34.734 6.168-7.426 10.32 2.806-5.824 6.876z"/><path fill="#084010" d="m25.102 41.15 9.814 1.842v13.376l-9.814-.803z"/><path fill="#0C541E" d="m36.089 107.23 9.156-2.965 12.609.663-8.32 3.078z"/><path fill="#1A5C34" d="m54.31 7.085 8.015 4.472-27.409 31.435-9.814-1.841z"/><path fill="#0B4819" d="m25.102 55.565 43.384-49.68 7.081 4.647-40.65 45.836z"/><path fill="#1A5C34" d="m75.724 23.797 6.589 3.308-61.486 67.32-10.664 2.109z"/><path fill="#0B4819" d="m0 121.688 90.787-98.78 5.53 3.44-85.096 91.515z"/><path fill="#1A5C34" d="m104.016 79.105 4.562-.99-44.305 43.85-7.88 4.498z"/><path fill="#0B4819" d="M104.016 95.21V79.105l4.562-.99v14.817z"/><path fill="#0B4819" d="m70.656 127.667 33.36-32.457 4.562-2.278-30.99 30.064z"/><path fill="#13802D" d="m123.568 104.132-8.28 7.781 3.713-3.66 7.642-7.184z"/><path fill="#0B4819" d="m49.534 108.006 74.034-76.297 3.075 2.86-68.79 70.36z"/><path fill="#084010" d="m123.568 31.709 3.075 2.86v66.5l-3.075 3.063zM136.322 113.157l2.06-3.858v18.405l-2.06 5.525z"/><path fill="#1A5C34" d="m138.029 0 1.925 5.548-94.709 98.717-9.156 2.965z"/><path fill="url(#a)" d="M54.31 7.085 25.103 41.151v14.414l43.384-49.68L138.03 0 36.089 107.23l13.445.776 74.034-76.297v72.423l-8.28 7.781 21.034 1.244v20.072l-65.666-5.562 33.36-32.457V79.105l-47.622 47.358L0 121.688l90.787-98.78-15.063.89-65.561 72.736v-61.8l6.168-7.426-15.165.897V11.584z"/><path d="M177.032 67.732h23.382v14.633h-23.382v32.571H164.44v.006-78.678h44.287v14.687h-31.695v16.78Zm49.073 0h23.387v14.633h-23.387v32.571h-12.586v.006-78.678h44.286v14.687h-31.7v16.78Zm51.083 13.642v33.568h-14.686V64.014l14.686-1.576v4.667c3.289-3.085 7.484-4.613 12.586-4.613 6.642 0 11.715 2.011 15.212 6.034 3.85-4.023 9.614-6.034 17.306-6.034 6.642 0 11.715 2.011 15.212 6.034 3.497 4.028 5.246 8.653 5.246 13.898v32.518h-14.687V86.094c0-3.497-.788-6.206-2.363-8.128-1.576-1.915-4.124-2.93-7.657-3.043-2.9.209-5.418 2.13-7.555 5.77a21.016 21.016 0 0 0-.262 3.313v30.948h-14.687V86.106c0-3.497-.788-6.206-2.363-8.128-1.576-1.915-4.112-2.936-7.645-3.05-3.216.204-5.997 2.352-8.343 6.446Zm72.944 55.595V64.014l14.686-1.576v4.196c3.915-2.805 7.764-4.196 11.542-4.196 8.044 0 14.424 2.614 19.144 7.86 4.72 5.252 7.084 11.362 7.084 18.357 0 6.994-2.363 13.11-7.084 18.356-4.72 5.246-11.1 7.866-19.144 7.866-5.246-.358-9.089-1.767-11.542-4.25v26.384l-14.686-.042Zm14.686-53.023v8.504c.699 5.866 4.369 9.322 11.017 10.324 8.39-.662 13.11-5.019 14.161-13.057-.352-9.8-5.072-14.86-14.161-15.218-6.648 1.05-10.318 4.201-11.017 9.447Zm40.103 4.768c0-7.692 2.447-13.994 7.34-18.882 4.894-4.893 11.19-7.34 18.882-7.34 7.693 0 13.81 2.447 18.357 7.34 4.548 4.888 6.821 11.19 6.821 18.882v5.246h-36.188c.352 2.799 1.575 4.983 3.67 6.558 2.095 1.576 4.548 2.364 7.34 2.364 4.894 0 9.268-1.39 13.112-4.19l8.39 8.385c-3.85 5.246-11.016 7.865-21.508 7.865-7.692 0-13.988-2.446-18.881-7.34-4.894-4.893-7.335-11.19-7.335-18.888Zm33.569-11.798c-2.1-1.575-4.548-2.363-7.34-2.363-2.793 0-5.246.788-7.34 2.363-2.096 1.576-3.146 3.76-3.146 6.559h20.983c-.012-2.8-1.063-4.983-3.157-6.559ZM512 64.068v46.68c0 7.34-2.184 13.48-6.559 18.41-4.374 4.929-9.876 7.537-16.524 7.823l-3.145.316c-10.14-.208-18.01-3.109-23.602-8.706l6.82-7.866c3.85 2.805 8.517 4.369 14.007 4.72 5.598 0 9.381-1.312 11.35-3.932 1.982-2.614 2.966-5.508 2.966-8.647v-2.62c-3.914 3.145-8.462 4.72-13.636 4.72-8.044 0-14.072-2.363-18.094-7.083-4.022-4.72-6.033-11.1-6.033-19.145 0-7.692 2.184-13.994 6.558-18.882 4.375-4.893 10.575-7.34 18.62-7.34 5.943.358 10.139 1.94 12.585 4.774v-4.774L512 64.068Zm-14.687 29.367v-8.498c-.698-5.867-4.368-9.322-11.016-10.324-8.743.316-13.463 4.666-14.161 13.057.352 9.799 5.072 14.86 14.161 15.218 6.648-1.057 10.318-4.208 11.016-9.453Z"/></svg>
